src/static/logos/kitematic.svg

<?xml version="1.0" encoding="UTF-8" standalone="no"?>
<svg width="256px" height="256px" viewBox="0 0 256 256" version="1.1" xmlns="http://www.w3.org/2000/svg" xmlns:xlink="http://www.w3.org/1999/xlink" preserveAspectRatio="xMidYMid">
	<g>
		<path d="M203.031173,255.890648 L128.095417,255.890648 C103.121498,255.890648 78.13358,256.13669 53.1606614,255.890648 C27.8077441,255.640604 5.5058168,237.389435 1.01583144,212.256071 C-0.594163313,203.243506 0.191834124,193.502815 0.191834124,184.394233 L0.191834124,82.0794674 C0.191834124,72.5438117 0.123834345,63.0051554 0.191834124,53.4694996 C0.350833605,31.2306381 13.9267893,10.9201114 35.0107206,3.22977608 C45.4596865,-0.581885766 56.341651,0.0372217351 67.2366155,0.0372217351 L114.513461,0.0372217351 C143.458367,0.0372217351 172.402273,-0.000784864328 201.347178,0.0372217351 C220.939114,0.0632262505 239.147055,9.46885943 249.029023,26.7318569 C255.633001,38.2698604 256,50.4139691 256,63.1711842 L256,162.133368 L256,199.274817 C256,216.548816 250.320019,232.626608 236.623063,243.875561 C227.200094,251.614905 215.223133,255.890648 203.031173,255.890648" fill="#3CB5E8"></path>
		<path d="M46.365,63.143 L46.365,195.651 L82.694,195.651 L82.527,152.94 L99.352,132.536 L119.923,195.651 L158.868,195.651 L126.955,107.256 L158.951,62.975 L113.247,62.975 L82.527,99.22 L82.527,63.059 L46.365,63.143" fill="#FFFFFF"></path>
		<path d="M215.119,63.059 L165.842,63.059 L194.27,106.196 L166.903,195.651 L215.119,195.651 L215.119,63.059" fill="#FFFFFF"></path>
	</g>
</svg>

<svg width="256" height="256" xmlns="http://www.w3.org/2000/svg" preserveAspectRatio="xMidYMid"><path d="M203.031 255.89h-74.936c-24.974 0-49.961.247-74.934 0-25.353-.25-47.655-18.5-52.145-43.634-1.61-9.012-.824-18.753-.824-27.862V82.08c0-9.535-.068-19.074 0-28.61C.35 31.231 13.927 10.92 35.01 3.23 45.46-.58 56.34.038 67.237.038h47.276c28.945 0 57.89-.038 86.834 0 19.592.026 37.8 9.432 47.682 26.695C255.633 38.27 256 50.414 256 63.172v136.103c0 17.274-5.68 33.352-19.377 44.6-9.423 7.74-21.4 12.016-33.592 12.016" fill="#3CB5E8"/><path d="M46.365 63.143v132.508h36.329l-.167-42.711 16.825-20.404 20.571 63.115h38.945l-31.913-88.395 31.996-44.281h-45.704L82.527 99.22V63.059l-36.162.084m168.754-.084h-49.277l28.428 43.137-27.367 89.455h48.216V63.059" fill="#FFF"/></svg>
